!!!OTL: 2059. Marias Wanderung.
!!!ODT: 1876
!!!ARE: Europa, Mitteleuropa, Deutschland, Mosel - Gegend, Cluesserath
!!!SCT: E2059
!!!TXL: @@DE
!!!YEM: Copyright 1995, estate of Helmut Schaffrath.
**kern	**text
*ICvox	*
*M4/4	*
*met(c)	*
*k[f#]	*
*G:	*
!LO:TX:a:t=Langsam.	!
!LO:TX:a:t=Aus der Moſelgegend (Clüſſerath, Reg. -Beʒ. Trier 1876).	!
{4d	Ma-
=1	=1
4g	-ri-
4g	-a
4a	gieng
8ddL	aus
8ccJ	.
=2	=2
(4b/	wan-
4a)	.
4g}	-dern,
{4b/	wollt
=3	=3
(4a	al-
8f#)	.
8g	-le
8a	Län-
8g	-der
8f#L	aus-
8eJ	.
=4	=4
2d	-gehn,
4r}	.
{4d	wollt
=5	=5
4g	alle
4g	Län-
4a	-der
(<8a	aus-
8dd)	.
=6	=6
2.dd}	-gehn,
{8ddL	um
8ccJ	.
=7	=7
8b/	ih-
8a	-ren
8g	lie-
8a	-ben
4b/	Sohn
4a	ʒu
=8	=8
2g	ſehn.
4r}	.
==	==
!!!AGN: geistlich, Marien - Lied, Legende
!!!ONB: ESAC (Essen Associative Code) Database: ERK3
!!!AMT: simple quadruple
!!!AIN: vox
!!!EED: Helmut Schaffrath
!!!EEV: 1.0
!!!GTL: 4. Katholische Lieder: b) Marienlieder (Rufe und Legenden.)
!!!URL-scan: https://rosdok.uni-rostock.de/mcrviewer/recordIdentifier/rosdok_ppn745177999/iview2/phys_0761.iview2?x=154.36169998046898&y=56.41321784816682&scale=0.7014306698522891&rotation=0&layout=singlePageLayout
!!!ENC: Anna Maria Matuszewska
!!!EEV: 2025/13/01
*-	*-
